icons/line/archive.svg

<svg width="24" height="24" viewBox="0 0 24 24" fill="none" xmlns="http://www.w3.org/2000/svg">
<path d="M4 8V8C3.44772 8 3 7.55228 3 7V6C3 4.89543 3.89543 4 5 4H19C20.1046 4 21 4.89543 21 6V7C21 7.55228 20.5523 8 20 8V8M4 8V18C4 19.1046 4.89543 20 6 20H18C19.1046 20 20 19.1046 20 18V8M4 8H20M10 12H14" stroke="currentColor" stroke-width="2" stroke-linecap="round" stroke-linejoin="round"/>
</svg>

<svg width="24" height="24" fill="none" xmlns="http://www.w3.org/2000/svg"><path d="M4 8v0a1 1 0 01-1-1V6a2 2 0 012-2h14a2 2 0 012 2v1a1 1 0 01-1 1v0M4 8v10a2 2 0 002 2h12a2 2 0 002-2V8M4 8h16m-10 4h4" stroke="currentColor" stroke-width="2" stroke-linecap="round" stroke-linejoin="round"/></svg>
